X: 52
T: YORKSHIRE GREY
B: "Old English Country Dances", Frank Kidson ed., William Reeves pub., London 1890
Z: 2010-9-26 John Chambers <jc:trillian.mit.edu>
M: 6/8
L: 1/8
K: D
|: dcd AFA | dfd ecA | dcd AFA | dec d3 :: dA=c BAG |
eBd ^cBA | dA=c BAG | eBd ^cBA | efg fed | eBc d3 :|
